X:74
T:Beginner's Luck
C:Charles Bolton, 1994
L:1/4
M:2/2
R:Reel
S:Colin Hume's website,  colinhume.com  - chords can also be printed below the stave.
Q:1/2=100
K:G
P:A
|: "G"DG "Em"FE | "Am"A2- "C"A2 | "Am"A/B/c- "D7"cB/A/ | "G"dB "C"GF/E/ |\
"G"DG "Em"FE | "Am"A2- "C"AA/B/ |1 "Am"c>A "C"EG | "D"F2 "C"E2 :|2 "Am"c>E "D6"FB | "G"G4 |
P:B
"G"B/c/d- "G7"dc/B/ | "Am"ec "C"AG | "Am"A/B/c- "D7"cB/A/ | "G"d2- "/F#"d2 |\
"Dm (G)"d/e/=f- "G7"fe/d/ | "C"ge "Am"dc | "C"ec "A7"BG | "Am"AE "D7"GF |
P:C
"G"DG "Em"FE | "Am"A2- "C"A2 | "D"A/B/c - "D7"cB/A/ | "G"d2- "/F#"de/f/ |\
"Em"g>B "E7"cd | "Am"e>G "C"AB | "Am"c>E "D6"FB | "G"G4 |]

